X:1
T:Bullockie's Song
M:3/4
L:1/4
K:D
 F/2E/2| D E D| C F A/2A/2| G/2G/2 B c| d2 B| A2 A| A- F D/2D/2| F E D|\
 E2F/2-E/2| D F A| A F/2F/2 D/2D/2| G A B| d2 B| A A A| A- F D| E D C|\
 D2||
